src/pos-icons/bottle-soda-classic.svg

<svg height="24" viewBox="0 0 24 24" width="24" xmlns="http://www.w3.org/2000/svg"><path d="m15 13.77a3 3 0 0 0 0 4.46v1.77a2 2 0 0 1 -2 2h-2a2 2 0 0 1 -2-2v-1.77a3 3 0 0 0 0-4.46v-4.77a12.28 12.28 0 0 0 1.91-5h-.91v-2h4v2h-.91a12.28 12.28 0 0 0 1.91 5z"/></svg>

<?xml version="1.0" encoding="UTF-8"?><!DOCTYPE svg PUBLIC "-//W3C//DTD SVG 1.1//EN" "http://www.w3.org/Graphics/SVG/1.1/DTD/svg11.dtd"><svg xmlns="http://www.w3.org/2000/svg" xmlns:xlink="http://www.w3.org/1999/xlink" version="1.1" id="mdi-bottle-soda-classic" width="24" height="24" viewBox="0 0 24 24"><path d="M15 13.77A3 3 0 0 0 15 18.23V20A2 2 0 0 1 13 22H11A2 2 0 0 1 9 20V18.23A3 3 0 0 0 9 13.77V9A12.28 12.28 0 0 0 10.91 4H10V2H14V4H13.09A12.28 12.28 0 0 0 15 9Z" /></svg>
